resources/svg/ripple.svg

<svg xmlns="http://www.w3.org/2000/svg" viewBox="0 0 15 15" fill="currentColor"><path fill-rule="evenodd" clip-rule="evenodd" d="M4.19339 5.15499L1.1326 1.83914L1.8674 1.16086L4.92819 4.47671C6.31406 5.97807 8.68594 5.97807 10.0718 4.47671L13.1326 1.16086L13.8674 1.83914L10.8066 5.15499C9.02478 7.08531 5.97522 7.08531 4.19339 5.15499ZM10.0718 10.5233C8.68594 9.02193 6.31406 9.02193 4.92819 10.5233L1.8674 13.8391L1.1326 13.1609L4.19339 9.84501C5.97522 7.91469 9.02478 7.91469 10.8066 9.84501L13.8674 13.1609L13.1326 13.8391L10.0718 10.5233Z" fill="black"/></svg>

<svg xmlns="http://www.w3.org/2000/svg" viewBox="0 0 15 15" fill="currentColor"><path fill-rule="evenodd" clip-rule="evenodd" d="M4.193 5.155l-3.06-3.316.734-.678 3.061 3.316a3.5 3.5 0 005.144 0l3.06-3.316.735.678-3.06 3.316a4.5 4.5 0 01-6.614 0zm5.879 5.368a3.5 3.5 0 00-5.144 0l-3.06 3.316-.735-.678 3.06-3.316a4.5 4.5 0 016.614 0l3.06 3.316-.734.678-3.061-3.316z" fill="currentColor"/></svg>
